icons/warehouse-11.svg

<?xml version="1.0" encoding="utf-8"?>
<!-- Generator: Adobe Illustrator 19.2.1, SVG Export Plug-In . SVG Version: 6.00 Build 0)  -->
<!DOCTYPE svg PUBLIC "-//W3C//DTD SVG 1.1//EN" "http://www.w3.org/Graphics/SVG/1.1/DTD/svg11.dtd">
<svg version="1.1" id="Layer_1" xmlns="http://www.w3.org/2000/svg" xmlns:xlink="http://www.w3.org/1999/xlink" x="0px" y="0px"
	 width="11px" height="11px" viewBox="0 0 11 11" style="enable-background:new 0 0 11 11;" xml:space="preserve">
<path d="M3,11H0V8h3V11z M7,8H4v3h3V8z M11,8H8v3h3V8z M5,4H2v3h3V4z M9,4H6v3h3V4z M10.44,3.24
	c0.1349-0.2403,0.0499-0.5444-0.19-0.68l-4.5-2.5c-0.1521-0.0855-0.3379-0.0855-0.49,0l-4.5,2.5
	C0.5272,2.7085,0.4588,3.0176,0.6073,3.2504C0.7444,3.4654,1.0213,3.5428,1.25,3.43L5.5,1.07l4.26,2.37
	c0.2421,0.1328,0.546,0.0442,0.6789-0.1979C10.4392,3.2414,10.4396,3.2407,10.44,3.24z"/>
</svg>

<svg id="Layer_1" data-name="Layer 1" xmlns="http://www.w3.org/2000/svg" width="11" height="11" viewBox="0 0 11 11">
  <title>warehouse-11</title>
  <path d="M3,11H0V8H3v3ZM7,8H4v3H7V8Zm4,0H8v3h3V8ZM5,4H2V7H5V4ZM9,4H6V7H9V4Zm1.44-.76a0.5,0.5,0,0,0-.19-0.68l-4.5-2.5a0.5,0.5,0,0,0-.49,0l-4.5,2.5a0.5,0.5,0,0,0,.49.87L5.5,1.07,9.76,3.44A0.5,0.5,0,0,0,10.44,3.24Z"/>
</svg>
